media/fig-tang_eq-fixed-2.svg

<svg xmlns:inkscape="http://www.inkscape.org/namespaces/inkscape" xmlns:sodipodi="http://sodipodi.sourceforge.net/DTD/sodipodi-0.dtd" xmlns="http://www.w3.org/2000/svg" xmlns:svg="http://www.w3.org/2000/svg" xml:space="preserve" viewBox="0 0 200 200" version="1.1" id="svg7" sodipodi:docname="fig-tang_eq-fixed-2.svg" inkscape:version="1.4.2 (ebf0e940d0, 2025-05-08)">
  <defs id="defs7"/>
  <sodipodi:namedview id="namedview7" pagecolor="#ffffff" bordercolor="#000000" borderopacity="0.25" inkscape:showpageshadow="2" inkscape:pageopacity="0.0" inkscape:pagecheckerboard="0" inkscape:deskcolor="#d1d1d1" inkscape:zoom="2.0076847" inkscape:cx="79.444745" inkscape:cy="-14.195456" inkscape:window-width="2234" inkscape:window-height="1418" inkscape:window-x="0" inkscape:window-y="0" inkscape:window-maximized="1" inkscape:current-layer="svg7" showguides="true">
    <sodipodi:guide position="25.0005,276.35627" orientation="-1,0" id="guide13" inkscape:locked="false" inkscape:label="" inkscape:color="rgb(0,134,229)"/>
    <sodipodi:guide position="175.0005,240.75629" orientation="-1,0" id="guide14" inkscape:locked="false" inkscape:label="" inkscape:color="rgb(0,134,229)"/>
    <sodipodi:guide position="175.0005,150.2875" orientation="0,1" id="guide15" inkscape:locked="false" inkscape:label="" inkscape:color="rgb(0,134,229)"/>
    <sodipodi:guide position="-42.500241,30.287502" orientation="0,1" id="guide16" inkscape:locked="false" inkscape:label="" inkscape:color="rgb(0,134,229)"/>
  </sodipodi:namedview>
  <path id="path5" style="display:inline;fill:none;stroke:#ff851b;stroke-width:11.6432;stroke-linecap:butt;stroke-linejoin:round;stroke-dasharray:none;paint-order:stroke fill markers" d="M 58.483999,116.40257 C 31.268352,138.94418 55.545842,132.34513 25.0005,159.9995 m 66.519543,-76.482241 3.14284,-3.144894 m 0,39.247425 C 88.122333,113.0765 81.581092,106.53526 75.03917,99.996069 53.568478,78.672667 39.591742,50.208449 25.0005,39.9995 m 69.662383,40.379037 c 6.543287,-6.539187 13.084517,-6.539187 19.623707,0 l 19.62165,19.621663 c 37.04301,38.87782 5.07767,28.87225 41.09226,59.9993 m -80.337617,-40.377 c 6.543287,6.5378 13.084517,6.5378 19.623707,0 l 3.14078,-3.14078 M 150.38705,83.522016 C 172.23924,63.118659 154.17893,60.299999 175.0005,39.9995" sodipodi:nodetypes="ccccccccsccccccc" class=""/>
  <path d="M 91.114502,199.84913 C 49.08807,196.03804 13.932676,166.31663 3.1614336,125.49094 c -4.2152448,-15.97376 -4.2152448,-35.071226 0,-51.044989 C 13.326748,35.919944 44.785664,7.4587317 84.44614,0.90967833 c 7.341499,-1.21290444 23.77612,-1.21290444 31.11867,0 43.32545,7.15445447 76.26611,40.12359367 83.41438,83.48545267 1.94275,11.783251 1.04699,29.053999 -2.12967,41.095809 -10.14116,38.43667 -41.80696,67.13226 -81.09988,73.49003 -4.67731,0.75675 -19.93263,1.29488 -24.636188,0.86816 m 23.524088,-6.01197 C 170.0385,184.69728 205.45013,131.21597 192.0336,76.946384 182.89216,39.966462 152.55164,12.251491 114.45272,6.0797623 107.20783,4.9057465 92.392517,4.9046955 85.371309,6.0766092 44.087323,12.970405 12.839485,44.279946 6.2057771,85.40098 c -1.121545,6.952654 -1.2045057,21.33619 -0.162771,28.1007 6.8132809,44.22792 41.9487219,77.31688 86.1814889,81.1616 4.442074,0.38678 18.119045,-0.11772 22.413045,-0.82717" class="" style="display:inline;fill:#aaaaaa;fill-opacity:1;stroke:none;stroke-width:0.370625;stroke-linejoin:round;stroke-opacity:1" id="path7"/>
</svg>

<svg xmlns="http://www.w3.org/2000/svg" xml:space="preserve" viewBox="0 0 200 200"><path d="M58.484 116.403C31.268 138.944 55.546 132.345 25.001 160M91.52 83.517l3.143-3.145m0 39.248q-9.81-9.816-19.624-19.624C53.57 78.673 39.592 50.208 25.001 40m69.662 40.379q9.814-9.81 19.624 0L133.908 100c37.043 38.878 5.078 28.872 41.093 60m-80.338-40.378q9.814 9.807 19.624 0l3.14-3.14m32.96-32.96C172.239 63.119 154.179 60.3 175 39.999" style="display:inline;fill:none;stroke:#ff851b;stroke-width:11.6432;stroke-linecap:butt;stroke-linejoin:round;stroke-dasharray:none;paint-order:stroke fill markers"/><path d="M91.115 199.85c-42.027-3.812-77.182-33.533-87.954-74.36-4.215-15.973-4.215-35.07 0-51.044C13.327 35.92 44.786 7.459 84.446.91c7.342-1.213 23.776-1.213 31.119 0 43.325 7.154 76.266 40.123 83.414 83.485 1.943 11.783 1.047 29.054-2.13 41.096-10.14 38.437-41.806 67.132-81.1 73.49-4.677.757-19.932 1.295-24.636.868m23.525-6.012c55.4-9.14 90.812-62.621 77.396-116.89-9.142-36.98-39.482-64.696-77.581-70.867-7.245-1.174-22.06-1.175-29.082-.003C44.087 12.97 12.84 44.28 6.206 85.4c-1.122 6.953-1.205 21.336-.163 28.1 6.813 44.229 41.949 77.318 86.181 81.162 4.443.387 18.12-.117 22.414-.827" style="display:inline;fill:#616161aaa;fill-opacity:1;stroke:none;stroke-width:.370625;stroke-linejoin:round;stroke-opacity:1"/></svg>
